src/icons/debug-alt.svg

<svg width="24" height="24" viewBox="0 0 24 24" fill="none" xmlns="http://www.w3.org/2000/svg">
<g clip-path="url(#clip0)">
<path fill-rule="evenodd" clip-rule="evenodd" d="M24 14.5784H20.3536C20.0638 16.1782 19.4814 17.7107 18.6356 19.0992L18.6308 19.1072L21.7012 22.182L20.5012 23.3736L17.604 20.4692L17.5964 20.4776C16.044 22.2068 14.0596 23.16 12.0112 23.16C10.348 23.1333 8.74543 22.5313 7.47602 21.4564L8.93562 20.4164C9.82753 21.0766 10.9018 21.4448 12.0112 21.4704C13.7624 21.4704 15.4364 20.5508 16.7268 18.88C18.1811 16.8662 18.9442 14.4356 18.902 11.952C18.9127 10.5071 18.6575 9.07258 18.1492 7.72L18.1468 7.7132H5.92002L5.91762 7.72C5.48687 8.86624 5.23826 10.0728 5.18082 11.296L3.58522 10.16C3.71448 9.12538 3.96514 8.10958 4.33202 7.1336L4.33442 7.1268L1.74402 4.5596L2.94402 3.3676L5.67682 6.0148H6.86842V5.138C6.87685 3.77446 7.42363 2.46946 8.38969 1.50715C9.35574 0.544837 10.6629 0.00313889 12.0264 1.60061e-08C12.698 -5.3139e-05 13.363 0.132286 13.9833 0.389449C14.6037 0.646612 15.1673 1.02355 15.6418 1.49871C16.1164 1.97387 16.4926 2.53793 16.749 3.15861C17.0054 3.7793 17.1369 4.44444 17.136 5.116V6.0144H18.36L21.0504 3.3344L22.2476 4.5268L19.6976 7.0672L19.7004 7.074C20.3005 8.62978 20.604 10.2841 20.5952 11.9516C20.5952 12.2636 20.584 12.5464 20.564 12.8584H24V14.5784ZM8.56002 6.0148H15.4428L15.4412 5.116C15.4428 4.66634 15.3556 4.2208 15.1846 3.80491C15.0136 3.38903 14.7622 3.01099 14.4448 2.69248C14.1274 2.37397 13.7503 2.12124 13.335 1.9488C12.9197 1.77636 12.4745 1.6876 12.0248 1.6876C11.1094 1.69073 10.2321 2.05481 9.58337 2.7008C8.93469 3.34679 8.56696 4.22255 8.56002 5.138V6.0148ZM0 23.014L1.3544 23.712L9.5248 17.8928V16.4968L1.3544 10.676L0 11.374V23.014ZM1.7144 21.3516V13.038L7.5504 17.1948L1.7144 21.3516Z" fill="#C5C5C5"/>
</g>
<defs>
<clipPath id="clip0">
</clipPath>
</defs>
</svg>

<svg width="24" height="24" xmlns="http://www.w3.org/2000/svg"><g clip-path="url(#clip0)"><path fill-rule="evenodd" clip-rule="evenodd" d="M24 14.578h-3.646a13.22 13.22 0 0 1-1.718 4.521l-.005.008 3.07 3.075-1.2 1.192-2.897-2.905-.008.009c-1.552 1.729-3.536 2.682-5.585 2.682a7.197 7.197 0 0 1-4.535-1.704l1.46-1.04a5.378 5.378 0 0 0 3.075 1.054c1.751 0 3.425-.92 4.716-2.59a11.5 11.5 0 0 0 2.175-6.928c.01-1.445-.245-2.88-.753-4.232l-.002-.007H5.92l-.002.007a11.73 11.73 0 0 0-.737 3.576L3.585 10.16c.13-1.035.38-2.05.747-3.026l.002-.007-2.59-2.567 1.2-1.192 2.733 2.647h1.191v-.877A5.17 5.17 0 0 1 12.026 0a5.109 5.109 0 0 1 5.11 5.116v.898h1.224l2.69-2.68 1.198 1.193-2.55 2.54.002.007c.6 1.556.904 3.21.895 4.878 0 .312-.011.594-.031.906H24v1.72zM8.56 6.015h6.883l-.002-.899a3.416 3.416 0 0 0-3.416-3.428 3.477 3.477 0 0 0-3.465 3.45v.877zM0 23.014l1.354.698 8.17-5.82v-1.395l-8.17-5.821L0 11.374v11.64zm1.714-1.662v-8.314l5.836 4.157-5.836 4.157z"/></g><defs><clipPath id="clip0"/></defs></svg>
